Collapse/img/contentSelect/US.svg

<svg width="22" height="16" viewBox="0 0 22 16" fill="none" xmlns="http://www.w3.org/2000/svg">
<rect width="22" height="16" rx="2" fill="white"/>
<mask id="mask0_128:1059" style="mask-type:alpha" maskUnits="userSpaceOnUse" x="0" y="0" width="22" height="16">
<rect width="22" height="16" rx="2" fill="white"/>
</mask>
<g mask="url(#mask0_128:1059)">
<path fill-rule="evenodd" clip-rule="evenodd" d="M22 0H0V1.06667H22V0ZM22 2.13334H0V3.20001H22V2.13334ZM0 4.26666H22V5.33333H0V4.26666ZM22 6.4H0V7.46667H22V6.4ZM0 8.53334H22V9.60001H0V8.53334ZM22 10.6667H0V11.7333H22V10.6667ZM0 12.8H22V13.8667H0V12.8ZM22 14.9333H0V16H22V14.9333Z" fill="#D02F44"/>
<rect width="10" height="7" fill="#46467F"/>
<g filter="url(#filter0_d_128:1059)">
<path fill-rule="evenodd" clip-rule="evenodd" d="M2.09523 1.59998C2.09523 1.89454 1.86071 2.13332 1.57142 2.13332C1.28213 2.13332 1.04761 1.89454 1.04761 1.59998C1.04761 1.30543 1.28213 1.06665 1.57142 1.06665C1.86071 1.06665 2.09523 1.30543 2.09523 1.59998ZM4.1905 1.59998C4.1905 1.89454 3.95598 2.13332 3.66669 2.13332C3.37739 2.13332 3.14288 1.89454 3.14288 1.59998C3.14288 1.30543 3.37739 1.06665 3.66669 1.06665C3.95598 1.06665 4.1905 1.30543 4.1905 1.59998ZM5.76186 2.13332C6.05115 2.13332 6.28567 1.89454 6.28567 1.59998C6.28567 1.30543 6.05115 1.06665 5.76186 1.06665C5.47257 1.06665 5.23805 1.30543 5.23805 1.59998C5.23805 1.89454 5.47257 2.13332 5.76186 2.13332ZM8.38094 1.59998C8.38094 1.89454 8.14642 2.13332 7.85713 2.13332C7.56784 2.13332 7.33332 1.89454 7.33332 1.59998C7.33332 1.30543 7.56784 1.06665 7.85713 1.06665C8.14642 1.06665 8.38094 1.30543 8.38094 1.59998ZM2.619 3.19998C2.9083 3.19998 3.14281 2.96119 3.14281 2.66664C3.14281 2.37209 2.9083 2.13331 2.619 2.13331C2.32971 2.13331 2.09519 2.37209 2.09519 2.66664C2.09519 2.96119 2.32971 3.19998 2.619 3.19998ZM5.23808 2.66664C5.23808 2.96119 5.00357 3.19998 4.71428 3.19998C4.42498 3.19998 4.19047 2.96119 4.19047 2.66664C4.19047 2.37209 4.42498 2.13331 4.71428 2.13331C5.00357 2.13331 5.23808 2.37209 5.23808 2.66664ZM6.80954 3.19998C7.09884 3.19998 7.33335 2.96119 7.33335 2.66664C7.33335 2.37209 7.09884 2.13331 6.80954 2.13331C6.52025 2.13331 6.28573 2.37209 6.28573 2.66664C6.28573 2.96119 6.52025 3.19998 6.80954 3.19998ZM8.38094 3.73333C8.38094 4.02788 8.14642 4.26666 7.85713 4.26666C7.56784 4.26666 7.33332 4.02788 7.33332 3.73333C7.33332 3.43877 7.56784 3.19999 7.85713 3.19999C8.14642 3.19999 8.38094 3.43877 8.38094 3.73333ZM5.76186 4.26666C6.05115 4.26666 6.28567 4.02788 6.28567 3.73333C6.28567 3.43877 6.05115 3.19999 5.76186 3.19999C5.47257 3.19999 5.23805 3.43877 5.23805 3.73333C5.23805 4.02788 5.47257 4.26666 5.76186 4.26666ZM4.1905 3.73333C4.1905 4.02788 3.95598 4.26666 3.66669 4.26666C3.37739 4.26666 3.14288 4.02788 3.14288 3.73333C3.14288 3.43877 3.37739 3.19999 3.66669 3.19999C3.95598 3.19999 4.1905 3.43877 4.1905 3.73333ZM1.57142 4.26666C1.86071 4.26666 2.09523 4.02788 2.09523 3.73333C2.09523 3.43877 1.86071 3.19999 1.57142 3.19999C1.28213 3.19999 1.04761 3.43877 1.04761 3.73333C1.04761 4.02788 1.28213 4.26666 1.57142 4.26666ZM3.14281 4.79998C3.14281 5.09454 2.9083 5.33332 2.619 5.33332C2.32971 5.33332 2.09519 5.09454 2.09519 4.79998C2.09519 4.50543 2.32971 4.26665 2.619 4.26665C2.9083 4.26665 3.14281 4.50543 3.14281 4.79998ZM4.71428 5.33332C5.00357 5.33332 5.23808 5.09454 5.23808 4.79998C5.23808 4.50543 5.00357 4.26665 4.71428 4.26665C4.42498 4.26665 4.19047 4.50543 4.19047 4.79998C4.19047 5.09454 4.42498 5.33332 4.71428 5.33332ZM7.33335 4.79998C7.33335 5.09454 7.09884 5.33332 6.80954 5.33332C6.52025 5.33332 6.28573 5.09454 6.28573 4.79998C6.28573 4.50543 6.52025 4.26665 6.80954 4.26665C7.09884 4.26665 7.33335 4.50543 7.33335 4.79998ZM7.85713 6.39998C8.14642 6.39998 8.38094 6.16119 8.38094 5.86664C8.38094 5.57209 8.14642 5.33331 7.85713 5.33331C7.56784 5.33331 7.33332 5.57209 7.33332 5.86664C7.33332 6.16119 7.56784 6.39998 7.85713 6.39998ZM6.28567 5.86664C6.28567 6.16119 6.05115 6.39998 5.76186 6.39998C5.47257 6.39998 5.23805 6.16119 5.23805 5.86664C5.23805 5.57209 5.47257 5.33331 5.76186 5.33331C6.05115 5.33331 6.28567 5.57209 6.28567 5.86664ZM3.66669 6.39998C3.95598 6.39998 4.1905 6.16119 4.1905 5.86664C4.1905 5.57209 3.95598 5.33331 3.66669 5.33331C3.37739 5.33331 3.14288 5.57209 3.14288 5.86664C3.14288 6.16119 3.37739 6.39998 3.66669 6.39998ZM2.09523 5.86664C2.09523 6.16119 1.86071 6.39998 1.57142 6.39998C1.28213 6.39998 1.04761 6.16119 1.04761 5.86664C1.04761 5.57209 1.28213 5.33331 1.57142 5.33331C1.86071 5.33331 2.09523 5.57209 2.09523 5.86664Z" fill="url(#paint0_linear_128:1059)"/>
</g>
</g>
<defs>
<filter id="filter0_d_128:1059" x="1.04761" y="1.06665" width="7.33325" height="6.33337" filterUnits="userSpaceOnUse" color-interpolation-filters="sRGB">
<feFlood flood-opacity="0" result="BackgroundImageFix"/>
<feColorMatrix in="SourceAlpha" type="matrix" values="0 0 0 0 0 0 0 0 0 0 0 0 0 0 0 0 0 0 127 0" result="hardAlpha"/>
<feOffset dy="1"/>
<feColorMatrix type="matrix" values="0 0 0 0 0 0 0 0 0 0 0 0 0 0 0 0 0 0 0.06 0"/>
<feBlend mode="normal" in2="BackgroundImageFix" result="effect1_dropShadow_128:1059"/>
<feBlend mode="normal" in="SourceGraphic" in2="effect1_dropShadow_128:1059" result="shape"/>
</filter>
<linearGradient id="paint0_linear_128:1059" x1="1.04761" y1="1.06665" x2="1.04761" y2="6.39998" gradientUnits="userSpaceOnUse">
<stop stop-color="white"/>
<stop offset="1" stop-color="#F0F0F0"/>
</linearGradient>
</defs>
</svg>

<svg width="22" height="16" fill="none" xmlns="http://www.w3.org/2000/svg"><rect width="22" height="16" rx="2" fill="#fff"/><mask id="a" style="mask-type:alpha" maskUnits="userSpaceOnUse" x="0" y="0" width="22" height="16"><rect width="22" height="16" rx="2" fill="#fff"/></mask><g mask="url(#a)"><path fill-rule="evenodd" clip-rule="evenodd" d="M22 0H0v1.067h22V0zm0 2.133H0V3.2h22V2.133zM0 4.267h22v1.066H0V4.267zM22 6.4H0v1.067h22V6.4zM0 8.533h22V9.6H0V8.533zm22 2.134H0v1.066h22v-1.066zM0 12.8h22v1.067H0V12.8zm22 2.133H0V16h22v-1.067z" fill="#D02F44"/><path fill="#46467F" d="M0 0h10v7H0z"/><g filter="url(#filter0_d_128:1059)"><path fill-rule="evenodd" clip-rule="evenodd" d="M2.095 1.6a.529.529 0 01-.524.533.529.529 0 01-.523-.533c0-.295.234-.533.523-.533.29 0 .524.238.524.533zm2.095 0a.529.529 0 01-.523.533.529.529 0 01-.524-.533c0-.295.234-.533.524-.533.289 0 .524.238.524.533zm1.572.533c.29 0 .524-.238.524-.533a.529.529 0 00-.524-.533.529.529 0 00-.524.533c0 .295.235.533.524.533zM8.38 1.6a.529.529 0 01-.524.533.529.529 0 01-.524-.533c0-.295.235-.533.524-.533.29 0 .524.238.524.533zM2.619 3.2c.29 0 .524-.239.524-.533a.529.529 0 00-.524-.534.529.529 0 00-.524.534c0 .294.235.533.524.533zm2.62-.533a.529.529 0 01-.525.533.529.529 0 01-.524-.533.53.53 0 01.524-.534c.29 0 .524.24.524.534zm1.57.533c.29 0 .524-.239.524-.533a.529.529 0 00-.523-.534.529.529 0 00-.524.534c0 .294.234.533.524.533zm1.572.533a.529.529 0 01-.524.534.529.529 0 01-.524-.534c0-.294.235-.533.524-.533.29 0 .524.239.524.533zm-2.62.534a.53.53 0 00.525-.534.529.529 0 00-.524-.533.529.529 0 00-.524.533.53.53 0 00.524.534zm-1.57-.534a.529.529 0 01-.524.534.529.529 0 01-.524-.534c0-.294.234-.533.524-.533.289 0 .524.239.524.533zm-2.62.534a.53.53 0 00.524-.534.529.529 0 00-.524-.533.529.529 0 00-.523.533c0 .295.234.534.523.534zm1.572.533a.529.529 0 01-.524.533.529.529 0 01-.524-.533c0-.295.235-.533.524-.533.29 0 .524.238.524.533zm1.571.533c.29 0 .524-.238.524-.533a.529.529 0 00-.524-.533.529.529 0 00-.524.533c0 .295.235.533.524.533zm2.62-.533a.529.529 0 01-.524.533.529.529 0 01-.524-.533c0-.295.234-.533.524-.533.289 0 .523.238.523.533zm.523 1.6c.29 0 .524-.239.524-.533a.529.529 0 00-.524-.534.529.529 0 00-.524.534c0 .294.235.533.524.533zm-1.571-.533a.529.529 0 01-.524.533.529.529 0 01-.524-.533.53.53 0 01.524-.534c.29 0 .524.24.524.534zm-2.62.533a.53.53 0 00.525-.533.529.529 0 00-.524-.534.529.529 0 00-.524.534c0 .294.234.533.524.533zm-1.57-.533a.529.529 0 01-.525.533.529.529 0 01-.523-.533c0-.295.234-.534.523-.534.29 0 .524.24.524.534z" fill="url(#paint0_linear_128:1059)"/></g></g><defs><linearGradient id="paint0_linear_128:1059" x1="1.048" y1="1.067" x2="1.048" y2="6.4" gradientUnits="userSpaceOnUse"><stop stop-color="#fff"/><stop offset="1" stop-color="#F0F0F0"/></linearGradient><filter id="filter0_d_128:1059" x="1.048" y="1.067" width="7.333" height="6.333" filterUnits="userSpaceOnUse" color-interpolation-filters="sRGB"><feFlood flood-opacity="0" result="BackgroundImageFix"/><feColorMatrix in="SourceAlpha" values="0 0 0 0 0 0 0 0 0 0 0 0 0 0 0 0 0 0 127 0" result="hardAlpha"/><feOffset dy="1"/><feColorMatrix values="0 0 0 0 0 0 0 0 0 0 0 0 0 0 0 0 0 0 0.06 0"/><feBlend in2="BackgroundImageFix" result="effect1_dropShadow_128:1059"/><feBlend in="SourceGraphic" in2="effect1_dropShadow_128:1059" result="shape"/></filter></defs></svg>
